static/img/step_1.svg

<svg fill="none" height="96" viewBox="0 0 96 96" width="96" xmlns="http://www.w3.org/2000/svg"><circle cx="48" cy="48" fill="#ffe9ce" fill-opacity=".51" r="48"/><path d="m54.856 59.94c.576 0 1.008.132 1.296.396s.432.636.432 1.116c0 1.032-.576 1.548-1.728 1.548h-12.024c-1.176 0-1.764-.516-1.764-1.548 0-.48.144-.852.432-1.116.312-.264.756-.396 1.332-.396h4.14v-17.964l-3.708 2.34c-.24.144-.48.216-.72.216-.408 0-.768-.18-1.08-.54-.288-.36-.432-.768-.432-1.224 0-.552.24-.984.72-1.296l5.544-3.528c.552-.336 1.08-.504 1.584-.504.528 0 .96.168 1.296.504s.504.792.504 1.368v20.628z" fill="#2ebfa5"/></svg>

<svg width="96" height="96" viewBox="0 0 96 96" fill="none" xmlns="http://www.w3.org/2000/svg">
<circle cx="48" cy="48" r="48" fill="#FFE9CE" fill-opacity="0.51"/>
<path d="M54.856 59.94C55.432 59.94 55.864 60.072 56.152 60.336C56.44 60.6 56.584 60.972 56.584 61.452C56.584 62.484 56.008 63 54.856 63H42.832C41.656 63 41.068 62.484 41.068 61.452C41.068 60.972 41.212 60.6 41.5 60.336C41.812 60.072 42.256 59.94 42.832 59.94H46.972V41.976L43.264 44.316C43.024 44.46 42.784 44.532 42.544 44.532C42.136 44.532 41.776 44.352 41.464 43.992C41.176 43.632 41.032 43.224 41.032 42.768C41.032 42.216 41.272 41.784 41.752 41.472L47.296 37.944C47.848 37.608 48.376 37.44 48.88 37.44C49.408 37.44 49.84 37.608 50.176 37.944C50.512 38.28 50.68 38.736 50.68 39.312V59.94H54.856Z" fill="#2EBFA5"/>
</svg>
